!!!SOCIAL_FUNCTION:	council songs
!!!PDT:	1918

Specific Region: Dakotas, Minnesota, Montana, Nebraska
!!!REG: Dakotas and Montana
!!!LING_GROUP: Siouan
!!!LANG: Tone
!!!OTL@ENG: I Fear Not
!!!ONM: No. 185
**kern
*Imale
*clefF4
*k[b-]
*M3/4
*MM76
8f
16g
16d
8f
8f
8f
16d
16d
=1||
*M2/4
8d
8c#
4c#
=2
8A
8A
4A
=3||
*M3/4
8.d
16c#
16d
8.d
(4c
=4||
*M2/4
8c)
[8A
8A]
8G
=5
8G
8F
4F
=6
8D
8D
4D
=7
8.G
16F
16G
[8.G
=8
8G]
8F
16F
16D
8F
=9
8F
8D
8D
8D
=10
2D
=11
2D
=12||
*M3/4
4c
8A
8A
4A
=13||
*M2/4
8d
8e
16f
8.d
=14
*M3/4
8d
8c
16c
8.A
16A
8.G
=15||
*M2/4
16G
8.F
4F
=16
8D
8D
4D
=17
8G
(16G
16F)
16G
8.F
=18
8G
8F
(16F
16D)
8F
=19
16F
8.D
4D
=20
2D
=21
4D
4r
==
*-
!!!CNT: Native American -- Sioux
!!!MRD: 1911/07//-1914///
!!!OCL: Frances Densmore
!!!YOR1: Teton Sioux Music, Bulletin 61,
!!!YOR2: Bureau of American Ethnology, Smithsonian Institution
!!!PPR: Government Printing Office
!!!PPP: Washington, D.C.
!!!PDT: 1918///
!!!ENC: Craig Stuart Sapp
!!!END: 2002/03/25/
!!!EEV: 2002/03/31/
!!!AGN: Council Song
!!!MPN@@SIO: Shiya'ka
!!!MPN@ENG: Teal Duck
!!!TXO: Teton Sioux
!!!MLC: Standing Rock Reservation, South Dakota, United States of America
!!!ARL: 45.9/-100.7#
!!!catalog: Catalogue No. 455
!!!PPG: 449
!!!EFL: 190/245
!!!VTS: 1213194913
